(Exported by FreeCAD)
(Post Processor: KineticNCBeamicon2_post)
(Output Time:2026-04-22 12:26:45.476683)
(begin preamble)
%
G17 G21 G40 G49 G80 G90
M08
G21
(begin operation: Fixture)
(machine: not set, mm/min)
G54
(finish operation: Fixture)
(begin operation: TC: Default Tool)
(machine: not set, mm/min)
(TC: Default Tool)
M05
M09M6 T1
(finish operation: TC: Default Tool)
(begin operation: Engrave)
(machine: not set, mm/min)
(Engrave)
G0 Z6.000
G0 Z6.000
G0 X3.930 Y23.809
G0 Z4.000
G1 X3.930 Y23.809 Z-5.000
G3 X23.930 Y3.809 Z-5.000 I20.000 J-0.000
G1 X63.930 Y3.809 Z-5.000
G3 X83.930 Y23.809 Z-5.000 I0.000 J20.000
G1 X83.930 Y38.809 Z-5.000
G3 X78.930 Y43.809 Z-5.000 I-5.000 J0.000
G1 X8.930 Y43.809 Z-5.000
G3 X3.930 Y38.809 Z-5.000 I-0.000 J-5.000
G1 X3.930 Y23.809 Z-5.000
G0 Z6.000
G0 Z6.000
G0 X17.030 Y31.809
G0 Z4.000
G1 X17.030 Y31.809 Z-5.000
G3 X17.030 Y31.809 Z-5.000 I-3.000 J0.000
G0 Z6.000
G0 Z6.000
G0 X46.930 Y31.809
G0 Z4.000
G1 X46.930 Y31.809 Z-5.000
G3 X46.930 Y31.809 Z-5.000 I-3.000 J0.000
G0 Z6.000
G0 Z6.000
G0 X76.830 Y31.809
G0 Z4.000
G1 X76.830 Y31.809 Z-5.000
G3 X76.830 Y31.809 Z-5.000 I-3.000 J0.000
G0 Z6.000
G0 Z6.000
G0 X62.590 Y13.879
G0 Z4.000
G1 X62.590 Y13.879 Z-5.000
G3 X62.590 Y13.879 Z-5.000 I-3.300 J0.000
G0 Z6.000
G0 Z6.000
G0 X31.571 Y13.879
G0 Z4.000
G1 X31.571 Y13.879 Z-5.000
G3 X31.571 Y13.879 Z-5.000 I-3.000 J0.000
G0 Z6.000
(finish operation: Engrave)
(begin postamble)
M05 M09
G17 G90 G80 G40
M30
